X:93
T:BOBTAIL- The Bob-tail Lass
S:Achilles, 1733
Q:1/4=120
L:1/8
M:6/8
K:Dm
A|d2e fed|c2BA2B|AGFG2A|(d3d2)::e|\
f2c cfe|f2c dfe|fed cBA|(G3G2)A/B/|cec FGA|c2cF2A|\
GAGA2^c|(d3d2):|]

